speech-l.svg

<svg height="120" viewBox="0 0 120 120" width="120" xmlns="http://www.w3.org/2000/svg" xmlns:xlink="http://www.w3.org/1999/xlink"><image height="120" width="120" xlink:href="data:image/png;base64,iVBORw0KGgoAAAANSUhEUgAAAHgAAAB4CAYAAAA5ZDbSAAAAAXNSR0IArs4c6QAAAERlWElmTU0AKgAAAAgAAYdpAAQAAAABAAAAGgAAAAAAA6ABAAMAAAABAAEAAKACAAQAAAABAAAAeKADAAQAAAABAAAAeAAAAAAI4lXuAAABE0lEQVR4Ae3QAQ0AAADCoPdPbQ43iEBhwIABAwYMGDBgwIABAwYMGDBgwIABAwYMGDBgwIABAwYMGDBgwIABAwYMGDBgwIABAwYMGDBgwIABAwYMGDBgwIABAwYMGDBgwIABAwYMGDBgwIABAwYMGDBgwIABAwYMGDBgwIABAwYMGDBgwIABAwYMGDBgwIABAwYMGDBgwIABAwYMGDBgwIABAwYMGDBgwIABAwYMGDBgwIABAwYMGDBgwIABAwYMGDBgwIABAwYMGDBgwIABAwYMGDBgwIABAwYMGDBgwIABAwYMGDBgwIABAwYMGDBgwIABAwYMGDBgwIABAwYMGDBgwIABAwYMGDBgwIABAwYMvA4M4XgAAQccBFMAAAAASUVORK5CYII="/><path d="m0 82 29.299-28.838c7.216 4.34 15.667 6.838 24.701 6.838h18c26.51 0 48-21.49 48-48v-15c0-26.51-21.49-48-48-48h-18c-26.51 0-48 21.49-48 48v7.5 7.5c0 13.457 5.54 25.618 14.461 34.334l-.002.002z" fill="none" stroke="#fff" stroke-linecap="round" stroke-linejoin="round" stroke-width="2"/></svg>

<?xml version="1.0" encoding="UTF-8"?>
<svg width="120px" height="120px" viewBox="0 0 120 120" xmlns="http://www.w3.org/2000/svg" xmlns:xlink="http://www.w3.org/1999/xlink" version="1.1">
 <!-- Generated by Pixelmator Pro 2.0.6 -->
 <defs>
  <image id="image" width="120px" height="120px" xlink:href="data:image/png;base64,iVBORw0KGgoAAAANSUhEUgAAAHgAAAB4CAYAAAA5ZDbSAAAAAXNSR0IArs4c6QAAAERlWElmTU0AKgAAAAgAAYdpAAQAAAABAAAAGgAAAAAAA6ABAAMAAAABAAEAAKACAAQAAAABAAAAeKADAAQAAAABAAAAeAAAAAAI4lXuAAABE0lEQVR4Ae3QAQ0AAADCoPdPbQ43iEBhwIABAwYMGDBgwIABAwYMGDBgwIABAwYMGDBgwIABAwYMGDBgwIABAwYMGDBgwIABAwYMGDBgwIABAwYMGDBgwIABAwYMGDBgwIABAwYMGDBgwIABAwYMGDBgwIABAwYMGDBgwIABAwYMGDBgwIABAwYMGDBgwIABAwYMGDBgwIABAwYMGDBgwIABAwYMGDBgwIABAwYMGDBgwIABAwYMGDBgwIABAwYMGDBgwIABAwYMGDBgwIABAwYMGDBgwIABAwYMGDBgwIABAwYMGDBgwIABAwYMGDBgwIABAwYMGDBgwIABAwYMGDBgwIABAwYMGDBgwIABAwYMvA4M4XgAAQccBFMAAAAASUVORK5CYII="/>
 </defs>
 <use id="Layer" xlink:href="#image" x="0px" y="0px" width="120px" height="120px"/>
 <path id="Rectangular-Speech-Bubble" d="M0 82 L29.299 53.162 C36.515 57.502 44.966 60 54 60 L72 60 C98.51 60 120 38.51 120 12 L120 -3 C120 -29.51 98.51 -51 72 -51 L54 -51 C27.49 -51 6 -29.51 6 -3 L6 4.5 6 12 C6 25.457 11.54 37.618 20.461 46.334 L20.459 46.336 0 82 Z" fill="none" stroke="#ffffff" stroke-width="2" stroke-opacity="1" stroke-linejoin="round" stroke-linecap="round"/>
</svg>
